src/assets/icons/arrow.svg

<svg width="100%" height="100%" viewBox="0 0 529 529" fill="none" xmlns="http://www.w3.org/2000/svg">
<g clip-path="url(#clip0)">
<path d="M273.496 448.632C293.92 490.865 385.457 393.969 400.398 381.978C431.789 356.758 463.168 331.548 494.547 306.328C506.336 296.859 530.306 283.787 528.944 265.243C527.604 247.093 511.064 237.591 498.601 227.593C465.352 200.875 432.093 174.157 398.856 147.427C376.112 129.154 353.38 110.88 330.625 92.6067C323.712 87.0559 310.584 71.2143 300.901 70.0996C255.133 64.8078 268.34 126.463 269.556 159.632C255.358 175.316 83.5544 138.026 60.7771 134.828C49.8557 133.297 16.8777 123.164 7.98296 135.966C-4.24448 153.564 1.20495 181.734 1.20495 201.528C1.20495 242.747 1.20495 283.978 1.20495 325.198C1.20495 345.724 -4.25574 373.613 9.2665 391.503C19.0169 404.395 44.4176 396.469 56.8364 394.723C100.207 388.644 143.554 382.541 186.925 376.461C214.239 372.633 241.543 368.794 268.846 364.966C268.351 365.022 267.844 436.945 273.496 448.632ZM322.609 416.859C320.728 418.379 318.837 419.899 316.945 421.408C280.894 450.377 283.528 424.11 285.679 394.386C286.242 394.847 286.748 395.422 287.323 395.782C298.514 402.661 309.717 409.495 320.987 416.24C321.472 416.521 322.068 416.634 322.609 416.859ZM437.857 322.113C438.353 322.485 438.95 322.654 439.49 322.946C437.396 324.635 435.302 326.324 433.196 328.002C432.813 327.732 432.599 327.371 432.149 327.135C420.901 321.066 409.676 314.93 398.518 308.681C331.47 264.342 264.275 220.229 197.261 175.789C200.672 176.262 204.061 176.758 207.495 177.23C213.778 180.214 220.128 183.063 226.332 186.181C295.362 226.962 363.558 269.094 428.974 315.515C431.935 317.7 434.885 319.906 437.857 322.113ZM313.736 129.841C325.356 133.916 336.953 138.049 348.539 142.181C354.405 144.264 363.434 148.621 368.681 151.954C380.74 159.621 392.821 167.593 404.834 175.71C411.466 181.047 418.109 186.373 424.74 191.698C396.086 176.769 367.51 161.659 339.126 146.054C330.411 141.246 321.663 136.416 312.937 131.586C307.51 128.602 307.87 127.803 313.736 129.841ZM285.093 142.575C285.87 143.273 286.624 144.038 287.469 144.523C359.629 186.598 432.352 227.728 505.525 268.103C505.649 268.171 505.784 268.193 505.908 268.261C504.579 270.163 502.643 272.19 499.918 274.386C484.786 286.546 469.653 298.705 454.521 310.854C454.082 310.404 453.8 309.897 453.249 309.492C445.232 303.614 437.193 297.793 429.098 292.04C377.047 253.736 323.915 216.818 268.182 184.954C275.151 184.076 281.04 180.518 285.116 171.15C285.814 169.552 285.96 167.762 285.769 165.938C285.769 165.892 285.78 165.87 285.78 165.825C285.78 162.571 285.251 153.384 285.093 142.575ZM82.4848 159.689C146.775 192.599 210.794 226.005 273.902 260.965C294.517 272.505 315.02 284.035 334.994 295.936C352.445 306.294 369.998 316.45 387.642 326.482C395.208 331.008 402.785 335.545 410.318 340.139C411.736 341.074 413.155 342.031 414.573 342.976C407.582 348.595 400.59 354.213 393.598 359.831C393.181 359.482 392.945 359.054 392.438 358.739C283.055 291.151 173.087 224.463 63.5807 157.054C69.8858 157.921 76.1909 158.81 82.4848 159.689ZM348.156 355.485C307.364 332.01 266.797 308.208 226.793 283.641C181.374 255.763 136.9 226.309 91.7511 198.105C86.4818 194.806 86.4705 194.783 91.7736 198.037C177.231 250.516 262.89 302.657 348.336 355.193C353.628 358.469 353.549 358.593 348.156 355.485ZM20.8634 155.793C21.0999 155.41 21.3138 154.96 21.5615 154.622C33.0909 161.794 44.609 168.977 56.1496 176.127C61.4414 179.403 61.4302 179.426 56.0933 176.228C44.4401 169.248 32.6968 162.436 20.8634 155.793ZM59.5724 245.247C46.2303 238.446 32.8319 231.77 19.3885 225.206C18.4878 224.767 17.6884 224.688 16.8439 224.53C16.5962 220.454 16.2584 215.421 15.977 209.792C16.7088 210.58 17.4294 211.436 18.2175 212.055C32.2577 222.672 46.3204 233.301 60.5069 243.716C65.506 247.431 65.1119 248.073 59.5724 245.247ZM18.7129 298.289C18.2063 297.962 17.7672 297.94 17.283 297.715C17.283 281.04 17.283 264.365 17.283 247.668C17.9811 248.186 18.6341 248.805 19.3885 249.165C84.1736 280.578 147.495 315.065 210.321 350.588C182.151 354.551 153.992 358.503 125.833 362.455C89.6456 341.704 53.7852 320.559 18.7129 298.289ZM65.6749 370.899C63.333 371.226 61.0023 371.552 58.6717 371.879C52.9182 372.689 47.345 373.973 42.2333 374.941C34.3857 369.998 26.5268 365.044 18.7242 360.045C18.24 359.741 17.8235 359.651 17.3618 359.415C17.3506 358.908 17.2943 358.48 17.2943 357.962C17.2943 353.098 17.2943 348.223 17.2943 343.359C17.9023 343.832 18.4652 344.418 19.0845 344.767C34.6221 353.436 50.1597 362.151 65.6749 370.899ZM286.512 370.753C285.938 353.774 281.299 340.635 263.667 343.112C257.384 343.99 251.113 344.879 244.819 345.757C167.176 296.532 91.6159 243.997 18.2288 188.67C17.2605 187.938 16.3823 187.6 15.5041 187.296C15.5716 183.378 15.7405 179.584 16.0445 175.969C17.0241 176.836 18.0374 177.681 19.1183 178.3C103.652 225.003 183.04 281.49 265.919 330.94C296.859 349.405 328.058 367.533 359.37 385.457C359.854 385.727 360.451 385.817 360.969 386.031C354.281 391.402 347.593 396.784 340.905 402.155C340.511 401.851 340.286 401.468 339.813 401.197C322.372 391.166 304.909 381.145 287.48 371.102C287.131 370.888 286.85 370.899 286.512 370.753Z" fill="#444444"/>
</g>
<defs>
<clipPath id="clip0">
<rect width="529" height="529" fill="white" transform="translate(0 529) rotate(-90)"/>
</clipPath>
</defs>
</svg>

<svg xmlns="http://www.w3.org/2000/svg" width="100%" height="100%" viewBox="0 0 529 529" fill="none"><g clip-path="url(#A)"><path d="M273.496 448.632c20.424 42.233 111.961-54.663 126.902-66.654l94.149-75.65c11.789-9.469 35.759-22.541 34.397-41.085-1.34-18.15-17.88-27.652-30.343-37.65l-99.745-80.166-68.231-54.82c-6.913-5.551-20.041-21.392-29.724-22.507-45.768-5.292-32.561 56.363-31.345 89.532-14.198 15.684-186.002-21.606-208.779-24.804-10.921-1.531-43.899-11.664-52.794 1.138-12.227 17.598-6.778 45.768-6.778 65.562v123.67c0 20.526-5.461 48.415 8.062 66.305 9.75 12.892 35.151 4.966 47.57 3.22l130.089-18.262 81.921-11.495c-.495.056-1.002 71.979 4.65 83.666zm49.113-31.773l-5.664 4.549c-36.051 28.969-33.417 2.702-31.266-27.022.563.461 1.069 1.036 1.644 1.396l33.664 20.458c.485.281 1.081.394 1.622.619zm115.248-94.746c.496.372 1.093.541 1.633.833l-6.294 5.056c-.383-.27-.597-.631-1.047-.867l-33.631-18.454-201.257-132.892 10.234 1.441 18.837 8.951c69.03 40.781 137.226 82.913 202.642 129.334l8.883 6.598zM313.736 129.841l34.803 12.34c5.866 2.083 14.895 6.44 20.142 9.773 12.059 7.667 24.14 15.639 36.153 23.756l19.906 15.988-85.614-45.644-26.189-14.468c-5.427-2.984-5.067-3.783.799-1.745zm-28.643 12.734c.777.698 1.531 1.463 2.376 1.948l218.056 123.58c.124.068.259.09.383.158-1.329 1.902-3.265 3.929-5.99 6.125l-45.397 36.468c-.439-.45-.721-.957-1.272-1.362l-24.151-17.452c-52.051-38.304-105.183-75.222-160.916-107.086 6.969-.878 12.858-4.436 16.934-13.804.698-1.598.844-3.388.653-5.212 0-.046.011-.068.011-.113 0-3.254-.529-12.441-.687-23.25zM82.485 159.689l191.417 101.276 61.092 34.971 52.648 30.546 22.676 13.657 4.255 2.837-20.975 16.855c-.417-.349-.653-.777-1.16-1.092L63.581 157.054l18.904 2.635zm265.671 195.796l-121.363-71.844-135.042-85.536c-5.269-3.299-5.281-3.322.023-.068l256.562 157.156c5.292 3.276 5.213 3.4-.18.292zM20.863 155.793c.237-.383.45-.833.698-1.171l34.588 21.505c5.292 3.276 5.281 3.299-.056.101l-35.23-20.435zm38.709 89.454l-40.184-20.041c-.901-.439-1.7-.518-2.545-.676l-.867-14.738c.732.788 1.452 1.644 2.241 2.263l42.289 31.661c4.999 3.715 4.605 4.357-.934 1.531zm-40.859 53.042c-.507-.327-.946-.349-1.43-.574v-50.047c.698.518 1.351 1.137 2.105 1.497 64.785 31.413 128.107 65.9 190.933 101.423l-84.488 11.867c-36.187-20.751-72.048-41.896-107.12-64.166zm46.962 72.61l-7.003.98c-5.754.81-11.327 2.094-16.438 3.062l-23.509-14.896c-.484-.304-.901-.394-1.362-.63-.011-.507-.067-.935-.067-1.453v-14.603c.608.473 1.171 1.059 1.79 1.408l46.59 26.132zm220.837-.146c-.574-16.979-5.213-30.118-22.845-27.641l-18.848 2.645c-77.643-49.225-153.203-101.76-226.59-157.087-.968-.732-1.846-1.07-2.725-1.374.068-3.918.236-7.712.54-11.327.98.867 1.993 1.712 3.074 2.331 84.534 46.703 163.922 103.19 246.801 152.64l93.451 54.517c.484.27 1.081.36 1.599.574l-20.064 16.124c-.394-.304-.619-.687-1.092-.958l-52.333-30.095c-.349-.214-.63-.203-.968-.349z" fill="#444"/></g><defs><clipPath id="A"><path fill="#fff" transform="matrix(0 -1 1 0 0 529)" d="M0 0h529v529H0z"/></clipPath></defs></svg>
